app/images/logo-white.svg

<?xml version="1.0" encoding="UTF-8"?>
<svg width="501px" height="96px" viewBox="0 0 501 96" version="1.1" xmlns="http://www.w3.org/2000/svg" xmlns:xlink="http://www.w3.org/1999/xlink">
    <!-- Generator: Sketch 60.1 (88133) - https://sketch.com -->
    <title>TanStack</title>
    <desc>Created with Sketch.</desc>
    <g id="Page-1" stroke="none" stroke-width="1" fill="none" fill-rule="evenodd">
        <g id="og-dark" transform="translate(-211.000000, -28.000000)" fill="#FFFFFF" fill-rule="nonzero">
            <path d="M256.809396,122 L256.809396,50.534 L282.738396,50.534 L282.738396,31.7 L211.272396,31.7 L211.272396,50.534 L237.201396,50.534 L237.201396,122 L256.809396,122 Z M298.931547,123.548 C305.897547,123.548 311.358547,121.398 315.314547,117.098 L315.314547,117.098 L315.314547,122 L333.890547,122 L333.890547,80.333 C333.890547,63.133 324.559547,54.533 305.897547,54.533 C295.147547,54.533 285.730547,57.285 277.646547,62.789 L277.646547,62.789 L283.451547,77.108 C290.417547,72.464 297.469547,70.142 304.607547,70.142 C307.961547,70.142 310.584547,70.9375 312.476547,72.5285 C314.368547,74.1195 315.314547,76.42 315.314547,79.43 L315.314547,79.43 L315.314547,83.042 C311.874547,81.494 307.058547,80.72 300.866547,80.72 C293.728547,80.72 287.493547,82.5475 282.161547,86.2025 C276.829547,89.8575 274.163547,95.082 274.163547,101.876 C274.163547,108.842 276.464047,114.1955 281.065047,117.9365 C285.666047,121.6775 291.621547,123.548 298.931547,123.548 Z M302.543547,107.81 C295.835547,107.81 292.481547,105.875 292.481547,102.005 C292.481547,97.791 296.351547,95.684 304.091547,95.684 C308.133547,95.684 311.874547,96.2 315.314547,97.232 L315.314547,97.232 L315.314547,103.166 C311.444547,106.262 307.187547,107.81 302.543547,107.81 Z M360.919698,122 L360.919698,87.428 C360.919698,82.354 361.844198,78.613 363.693198,76.205 C365.542198,73.797 368.487698,72.593 372.529698,72.593 C376.313698,72.593 379.001198,73.7755 380.592198,76.1405 C382.183198,78.5055 382.978698,82.354 382.978698,87.686 L382.978698,87.686 L382.978698,122 L401.683698,122 L401.683698,79.172 C401.683698,70.486 399.404698,64.208 394.846698,60.338 C390.288698,56.468 384.956698,54.533 378.850698,54.533 C371.110698,54.533 365.133698,57.07 360.919698,62.144 L360.919698,62.144 L360.919698,56.081 L342.214698,56.081 L342.214698,122 L360.919698,122 Z M441.741849,123.548 C451.459849,123.548 459.500849,121.054 465.864849,116.066 C472.228849,111.078 475.410849,104.327 475.410849,95.813 C475.410849,92.631 475.002349,89.707 474.185349,87.041 C473.368349,84.375 472.056849,82.053 470.250849,80.075 C468.444849,78.097 466.703349,76.3985 465.026349,74.9795 C463.349349,73.5605 461.048849,72.2275 458.124849,70.9805 C455.200849,69.7335 452.900349,68.809 451.223349,68.207 C449.546349,67.605 447.159849,66.788 444.063849,65.756 C441.139849,64.724 439.097349,63.993 437.936349,63.563 C436.775349,63.133 435.291849,62.488 433.485849,61.628 C431.679849,60.768 430.432849,59.908 429.744849,59.048 C429.056849,58.188 428.712849,57.199 428.712849,56.081 C428.712849,51.179 432.367849,48.728 439.677849,48.728 C446.729849,48.728 451.674849,51.953 454.512849,58.403 L454.512849,58.403 L472.056849,52.727 C470.250849,46.105 466.595849,40.687 461.091849,36.473 C455.587849,32.259 448.793849,30.152 440.709849,30.152 C430.991849,30.152 423.294849,32.603 417.618849,37.505 C411.942849,42.407 409.104849,48.47 409.104849,55.694 C409.104849,58.274 409.448849,60.7035 410.136849,62.9825 C410.824849,65.2615 411.620349,67.1965 412.523349,68.7875 C413.426349,70.3785 414.780849,71.905 416.586849,73.367 C418.392849,74.829 419.940849,75.99 421.230849,76.85 C422.520849,77.71 424.412849,78.656 426.906849,79.688 C429.400849,80.72 431.314349,81.4725 432.647349,81.9455 C433.980349,82.4185 435.979849,83.085 438.645849,83.945 C442.687849,85.235 445.676349,86.2455 447.611349,86.9765 C449.546349,87.7075 451.395349,88.847 453.158349,90.395 C454.921349,91.943 455.802849,93.706 455.802849,95.684 C455.802849,98.694 454.598849,100.9945 452.190849,102.5855 C449.782849,104.1765 446.471849,104.972 442.257849,104.972 C438.215849,104.972 434.517849,103.6605 431.163849,101.0375 C427.809849,98.4145 425.100849,94.91 423.036849,90.524 L423.036849,90.524 L405.492849,97.103 C408.244849,105.359 412.781349,111.8305 419.102349,116.5175 C425.423349,121.2045 432.969849,123.548 441.741849,123.548 Z M500.892,123.548 C506.826,123.548 511.814,122.559 515.856,120.581 L515.856,120.581 L517.92,104.843 C514.136,106.563 510.352,107.423 506.568,107.423 C505.536,107.423 504.6545,107.1005 503.9235,106.4555 C503.1925,105.8105 502.827,104.886 502.827,103.682 L502.827,103.682 L502.827,72.464 L517.146,72.464 L517.146,56.081 L502.827,56.081 L502.827,28.862 L484.251,37.763 L484.251,56.081 L475.221,56.081 L475.221,72.464 L484.251,72.464 L484.251,105.488 C484.251,117.528 489.798,123.548 500.892,123.548 Z M543.530151,123.548 C550.496151,123.548 555.957151,121.398 559.913151,117.098 L559.913151,117.098 L559.913151,122 L578.489151,122 L578.489151,80.333 C578.489151,63.133 569.158151,54.533 550.496151,54.533 C539.746151,54.533 530.329151,57.285 522.245151,62.789 L522.245151,62.789 L528.050151,77.108 C535.016151,72.464 542.068151,70.142 549.206151,70.142 C552.560151,70.142 555.183151,70.9375 557.075151,72.5285 C558.967151,74.1195 559.913151,76.42 559.913151,79.43 L559.913151,79.43 L559.913151,83.042 C556.473151,81.494 551.657151,80.72 545.465151,80.72 C538.327151,80.72 532.092151,82.5475 526.760151,86.2025 C521.428151,89.8575 518.762151,95.082 518.762151,101.876 C518.762151,108.842 521.062651,114.1955 525.663651,117.9365 C530.264651,121.6775 536.220151,123.548 543.530151,123.548 Z M547.142151,107.81 C540.434151,107.81 537.080151,105.875 537.080151,102.005 C537.080151,97.791 540.950151,95.684 548.690151,95.684 C552.732151,95.684 556.473151,96.2 559.913151,97.232 L559.913151,97.232 L559.913151,103.166 C556.043151,106.262 551.786151,107.81 547.142151,107.81 Z M614.419302,123.548 C629.383302,123.548 639.058302,116.109 643.444302,101.231 L643.444302,101.231 L625.513302,96.071 C623.535302,102.435 619.837302,105.617 614.419302,105.617 C610.979302,105.617 608.141302,104.0905 605.905302,101.0375 C603.669302,97.9845 602.551302,94.007 602.551302,89.105 C602.551302,84.203 603.690802,80.204 605.969802,77.108 C608.248802,74.012 611.151302,72.464 614.677302,72.464 C619.751302,72.464 623.363302,75.302 625.513302,80.978 L625.513302,80.978 L643.315302,75.173 C639.015302,61.413 629.383302,54.533 614.419302,54.533 C605.131302,54.533 597.670802,57.6505 592.037802,63.8855 C586.404802,70.1205 583.588302,78.527 583.588302,89.105 C583.588302,99.855 586.383302,108.283 591.973302,114.389 C597.563302,120.495 605.045302,123.548 614.419302,123.548 Z M668.538453,122 L668.538453,93.362 L673.440453,88.847 L690.855453,122 L711.237453,122 L687.243453,75.56 L707.367453,56.081 L685.179453,56.081 L668.538453,72.593 L668.538453,28.862 L649.833453,37.634 L649.833453,122 L668.538453,122 Z" id="TanStack"></path>
        </g>
    </g>
</svg>

<svg height="96" viewBox="0 0 501 96" width="501" xmlns="http://www.w3.org/2000/svg"><path d="m256.809396 122v-71.466h25.929v-18.834h-71.466v18.834h25.929v71.466zm42.122151 1.548c6.966 0 12.427-2.15 16.383-6.45v4.902h18.576v-41.667c0-17.2-9.331-25.8-27.993-25.8-10.75 0-20.167 2.752-28.251 8.256l5.805 14.319c6.966-4.644 14.018-6.966 21.156-6.966 3.354 0 5.977.7955 7.869 2.3865s2.838 3.8915 2.838 6.9015v3.612c-3.44-1.548-8.256-2.322-14.448-2.322-7.138 0-13.373 1.8275-18.705 5.4825s-7.998 8.8795-7.998 15.6735c0 6.966 2.3005 12.3195 6.9015 16.0605s10.5565 5.6115 17.8665 5.6115zm3.612-15.738c-6.708 0-10.062-1.935-10.062-5.805 0-4.214 3.87-6.321 11.61-6.321 4.042 0 7.783.516 11.223 1.548v5.934c-3.87 3.096-8.127 4.644-12.771 4.644zm58.376151 14.19v-34.572c0-5.074.9245-8.815 2.7735-11.223s4.7945-3.612 8.8365-3.612c3.784 0 6.4715 1.1825 8.0625 3.5475s2.3865 6.2135 2.3865 11.5455v34.314h18.705v-42.828c0-8.686-2.279-14.964-6.837-18.834s-9.89-5.805-15.996-5.805c-7.74 0-13.717 2.537-17.931 7.611v-6.063h-18.705v65.919zm80.822151 1.548c9.718 0 17.759-2.494 24.123-7.482s9.546-11.739 9.546-20.253c0-3.182-.4085-6.106-1.2255-8.772s-2.1285-4.988-3.9345-6.966-3.5475-3.6765-5.2245-5.0955-3.9775-2.752-6.9015-3.999-5.2245-2.1715-6.9015-2.7735-4.0635-1.419-7.1595-2.451c-2.924-1.032-4.9665-1.763-6.1275-2.193s-2.6445-1.075-4.4505-1.935-3.053-1.72-3.741-2.58-1.032-1.849-1.032-2.967c0-4.902 3.655-7.353 10.965-7.353 7.052 0 11.997 3.225 14.835 9.675l17.544-5.676c-1.806-6.622-5.461-12.04-10.965-16.254s-12.298-6.321-20.382-6.321c-9.718 0-17.415 2.451-23.091 7.353s-8.514 10.965-8.514 18.189c0 2.58.344 5.0095 1.032 7.2885s1.4835 4.214 2.3865 5.805 2.2575 3.1175 4.0635 4.5795 3.354 2.623 4.644 3.483 3.182 1.806 5.676 2.838 4.4075 1.7845 5.7405 2.2575 3.3325 1.1395 5.9985 1.9995c4.042 1.29 7.0305 2.3005 8.9655 3.0315s3.784 1.8705 5.547 3.4185 2.6445 3.311 2.6445 5.289c0 3.01-1.204 5.3105-3.612 6.9015s-5.719 2.3865-9.933 2.3865c-4.042 0-7.74-1.3115-11.094-3.9345s-6.063-6.1275-8.127-10.5135l-17.544 6.579c2.752 8.256 7.2885 14.7275 13.6095 19.4145s13.8675 7.0305 22.6395 7.0305zm59.150151 0c5.934 0 10.922-.989 14.964-2.967l2.064-15.738c-3.784 1.72-7.568 2.58-11.352 2.58-1.032 0-1.9135-.3225-2.6445-.9675s-1.0965-1.5695-1.0965-2.7735v-31.218h14.319v-16.383h-14.319v-27.219l-18.576 8.901v18.318h-9.03v16.383h9.03v33.024c0 12.04 5.547 18.06 16.641 18.06zm42.638151 0c6.966 0 12.427-2.15 16.383-6.45v4.902h18.576v-41.667c0-17.2-9.331-25.8-27.993-25.8-10.75 0-20.167 2.752-28.251 8.256l5.805 14.319c6.966-4.644 14.018-6.966 21.156-6.966 3.354 0 5.977.7955 7.869 2.3865s2.838 3.8915 2.838 6.9015v3.612c-3.44-1.548-8.256-2.322-14.448-2.322-7.138 0-13.373 1.8275-18.705 5.4825s-7.998 8.8795-7.998 15.6735c0 6.966 2.3005 12.3195 6.9015 16.0605s10.5565 5.6115 17.8665 5.6115zm3.612-15.738c-6.708 0-10.062-1.935-10.062-5.805 0-4.214 3.87-6.321 11.61-6.321 4.042 0 7.783.516 11.223 1.548v5.934c-3.87 3.096-8.127 4.644-12.771 4.644zm67.277151 15.738c14.964 0 24.639-7.439 29.025-22.317l-17.931-5.16c-1.978 6.364-5.676 9.546-11.094 9.546-3.44 0-6.278-1.5265-8.514-4.5795s-3.354-7.0305-3.354-11.9325 1.1395-8.901 3.4185-11.997 5.1815-4.644 8.7075-4.644c5.074 0 8.686 2.838 10.836 8.514l17.802-5.805c-4.3-13.76-13.932-20.64-28.896-20.64-9.288 0-16.7485 3.1175-22.3815 9.3525s-8.4495 14.6415-8.4495 25.2195c0 10.75 2.795 19.178 8.385 25.284s13.072 9.159 22.446 9.159zm54.119151-1.548v-28.638l4.902-4.515 17.415 33.153h20.382l-23.994-46.44 20.124-19.479h-22.188l-16.641 16.512v-43.731l-18.705 8.772v84.366z" fill="#fff" transform="translate(-211 -28)"/></svg>
